packages/foundations/assets/icons/functional/images/audio & video/fast_backward_30_16.svg

<svg width="16" height="16" viewBox="0 0 16 16" fill="none" xmlns="http://www.w3.org/2000/svg">
<g clip-path="url(#clip0_184_260)">
<path fill-rule="evenodd" clip-rule="evenodd" d="M12.9633 12.2859C12.4473 12.2859 12.1353 11.8489 12.1353 11.5209C12.1353 11.1459 12.7283 10.2409 12.7283 9.22488C12.7283 7.06988 11.0883 5.44588 9.09034 5.25888L9.63634 5.77388C9.76134 5.92988 9.87034 6.13388 9.87034 6.33588C9.87034 6.74188 9.49634 7.10188 9.07434 7.10188C8.86124 7.10425 8.6555 7.02396 8.50034 6.87788L6.75834 5.12188C6.61629 4.96811 6.53956 4.76516 6.54434 4.55588C6.54434 4.35288 6.62234 4.18088 6.76234 4.04088L8.52834 2.26088C8.59867 2.18675 8.68334 2.1277 8.7772 2.0873C8.87106 2.04691 8.97215 2.02601 9.07434 2.02588C9.28513 2.02693 9.48698 2.11113 9.63603 2.26018C9.78508 2.40924 9.86929 2.61109 9.87034 2.82188C9.87013 2.92411 9.84929 3.02524 9.80909 3.11923C9.76888 3.21322 9.71012 3.29813 9.63634 3.36888L9.27734 3.72888C10.6462 3.85528 11.9182 4.48945 12.843 5.50659C13.7678 6.52373 14.2784 7.85018 14.2743 9.22488L14.2683 9.47488C14.2123 10.6029 13.7893 12.2859 12.9633 12.2859ZM3.77634 8.30588C4.78534 8.30588 5.51634 8.96688 5.51634 9.87888C5.51634 10.2089 5.34834 10.4989 5.01234 10.7459C5.47234 11.0019 5.74934 11.3909 5.74934 11.8509C5.74934 13.8199 3.34934 13.9349 2.55934 13.9739H2.52134C2.4193 13.9763 2.31778 13.9586 2.22258 13.9218C2.12738 13.885 2.04037 13.8298 1.9665 13.7594C1.81731 13.6171 1.73074 13.4215 1.72584 13.2154C1.72093 13.0093 1.79809 12.8097 1.94033 12.6605C2.08258 12.5114 2.27826 12.4248 2.48434 12.4199C3.60734 12.3659 4.19434 12.1999 4.19434 11.9279C4.19434 11.8179 4.12534 11.6979 3.97734 11.6979C3.57334 11.6979 3.41734 11.8329 3.17434 11.8329C2.97302 11.8257 2.78218 11.7413 2.64142 11.5972C2.50066 11.4531 2.42078 11.2603 2.41834 11.0589C2.41834 10.7259 2.66034 10.4339 3.02034 10.3599C3.61634 10.2379 3.98434 10.0999 3.98434 9.98788C3.98434 9.92888 3.91234 9.86088 3.74234 9.86088C3.27234 9.86088 2.98034 10.1609 2.61534 10.1609C2.21934 10.1609 1.85634 9.80788 1.85634 9.38088C1.85634 9.09988 2.01634 8.82088 2.29034 8.68588C2.81734 8.42588 3.29034 8.30588 3.77634 8.30588ZM8.61934 8.30388C9.89934 8.30388 10.7743 9.20988 10.7743 10.5999V11.4739C10.7743 12.8799 9.86834 13.7859 8.54134 13.7859C7.33834 13.7859 6.46434 12.8639 6.46434 11.5059V10.5369C6.46434 9.20988 7.37034 8.30388 8.61934 8.30388ZM8.66434 9.86188H8.60434L8.53634 9.86488C8.23034 9.88488 8.02634 9.99688 8.02634 10.5219V11.5049C8.02634 12.0519 8.19734 12.2189 8.61934 12.2109C8.99434 12.2039 9.19734 12.0209 9.19734 11.4589V10.5839C9.19734 9.92788 8.88434 9.85488 8.60334 9.86188H8.66434Z" fill="#1A1C1F"/>
</g>
<defs>
<clipPath id="clip0_184_260">
<rect width="16" height="16" fill="white"/>
</clipPath>
</defs>
</svg>

<svg xmlns="http://www.w3.org/2000/svg" width="16" height="16" fill="none"><g clip-path="url(#a)"><path fill="#1A1C1F" fill-rule="evenodd" d="M12.963 12.286c-.516 0-.828-.437-.828-.765 0-.375.593-1.28.593-2.296 0-2.155-1.64-3.78-3.638-3.966l.546.515c.125.156.234.36.234.562 0 .406-.374.766-.796.766a.82.82 0 0 1-.574-.224L6.758 5.122a.8.8 0 0 1-.214-.566c0-.203.078-.375.218-.515l1.766-1.78a.75.75 0 0 1 .546-.235.8.8 0 0 1 .796.796.76.76 0 0 1-.234.547l-.359.36a5.503 5.503 0 0 1 4.997 5.496l-.006.25c-.056 1.128-.479 2.81-1.305 2.81m-9.187-3.98c1.01 0 1.74.66 1.74 1.573q0 .496-.504.867c.46.256.737.645.737 1.105 0 1.969-2.4 2.084-3.19 2.123h-.038a.778.778 0 0 1-.037-1.554c1.123-.054 1.71-.22 1.71-.492 0-.11-.069-.23-.217-.23-.404 0-.56.135-.803.135a.784.784 0 0 1-.756-.774c0-.333.242-.625.602-.7.596-.121.964-.26.964-.371 0-.06-.072-.127-.242-.127-.47 0-.762.3-1.127.3-.396 0-.759-.353-.759-.78 0-.281.16-.56.434-.695.527-.26 1-.38 1.486-.38m4.843-.002c1.28 0 2.155.906 2.155 2.296v.874c0 1.406-.906 2.312-2.233 2.312-1.203 0-2.077-.922-2.077-2.28v-.97c0-1.326.906-2.232 2.155-2.232m.045 1.558h-.06l-.068.003c-.306.02-.51.132-.51.657v.983c0 .547.171.714.593.706.375-.007.578-.19.578-.752v-.875c0-.656-.313-.73-.594-.722z" clip-rule="evenodd"/></g><defs><clipPath id="a"><path fill="#fff" d="M0 0h16v16H0z"/></clipPath></defs></svg>
